packages/bezier-icons/icons/mobile-messaging.svg

<svg width="24" height="24" viewBox="0 0 24 24" fill="none" xmlns="http://www.w3.org/2000/svg">
<path fill-rule="evenodd" clip-rule="evenodd" d="M16.25 13.1871C19.7018 13.1871 22.5 10.7886 22.5 7.82995C22.5 4.87128 19.7018 2.47281 16.25 2.47281C12.7982 2.47281 10 4.87128 10 7.82995C10 9.6229 11.0276 11.2101 12.6055 12.1825C12.3941 12.8727 12.053 13.4993 11.8032 13.9048C11.689 14.0901 11.8347 14.3263 12.047 14.2783C12.6879 14.1332 13.7753 13.7925 14.7462 13.031C15.2279 13.133 15.7316 13.1871 16.25 13.1871ZM16.2503 8.72281C15.7595 8.72281 15.3571 8.32114 15.3571 7.82962C15.3571 7.33876 15.7595 6.93709 16.2503 6.93709C16.7418 6.93709 17.1435 7.33876 17.1435 7.82962C17.1435 8.32114 16.7418 8.72281 16.2503 8.72281ZM13.5718 8.72281C13.0809 8.72281 12.6786 8.32114 12.6786 7.82962C12.6786 7.33876 13.0809 6.93709 13.5718 6.93709C14.0633 6.93709 14.4649 7.33876 14.4649 7.82962C14.4649 8.32114 14.0633 8.72281 13.5718 8.72281ZM18.0357 7.82962C18.0357 8.32114 18.438 8.72281 18.9289 8.72281C19.4204 8.72281 19.8221 8.32114 19.8221 7.82962C19.8221 7.33876 19.4204 6.93709 18.9289 6.93709C18.438 6.93709 18.0357 7.33876 18.0357 7.82962ZM5.76101 18.239C1.44509 13.9231 1.44509 10.1467 2.79382 8.79794C3.60305 7.9887 4.78615 7.76913 5.49126 8.25844C6.13865 8.69004 7.10973 9.9081 7.10973 10.9559C7.10973 11.5878 6.64352 12.1312 6.25929 12.5791C5.98747 12.8959 5.75668 13.1649 5.76101 13.3836C5.77146 13.9114 6.35187 15.2846 7.53361 16.4664C8.71535 17.6481 10.0886 18.2285 10.6164 18.239C10.8351 18.2433 11.1041 18.0125 11.4209 17.7407C11.8688 17.3565 12.4122 16.8903 13.0441 16.8903C14.0919 16.8903 15.31 17.8614 15.7416 18.5087C16.2309 19.2138 16.0113 20.3969 15.2021 21.2062C13.8534 22.5549 10.0769 22.5549 5.76101 18.239Z" fill="#313234"/>
</svg>

<svg xmlns="http://www.w3.org/2000/svg" width="24" height="24" fill="none" viewBox="0 0 24 24"><path fill="#313234" fill-rule="evenodd" d="M16.25 13.187c3.452 0 6.25-2.398 6.25-5.357s-2.798-5.357-6.25-5.357S10 4.87 10 7.83c0 1.793 1.028 3.38 2.605 4.352-.21.69-.552 1.317-.802 1.723-.114.185.032.421.244.373.64-.145 1.728-.486 2.7-1.247.48.102.985.156 1.503.156m0-4.464a.896.896 0 0 1-.893-.893c0-.491.402-.893.893-.893.492 0 .893.402.893.893a.895.895 0 0 1-.893.893m-2.678 0a.896.896 0 0 1-.893-.893c0-.491.402-.893.893-.893s.893.402.893.893a.895.895 0 0 1-.893.893m4.464-.893c0 .491.402.893.893.893a.895.895 0 0 0 .893-.893.895.895 0 0 0-.893-.893.896.896 0 0 0-.893.893M5.76 18.239c-4.316-4.316-4.316-8.092-2.967-9.441.809-.81 1.992-1.029 2.697-.54.648.432 1.619 1.65 1.619 2.698 0 .632-.466 1.175-.85 1.623-.273.317-.503.586-.499.805.01.527.59 1.9 1.773 3.082 1.181 1.182 2.555 1.762 3.082 1.773.22.004.488-.227.805-.498.448-.384.991-.85 1.623-.85 1.048 0 2.266.97 2.698 1.618.489.705.27 1.888-.54 2.697-1.349 1.349-5.125 1.349-9.441-2.967" clip-rule="evenodd"/></svg>
